sharp/svg/directions_subway.svg

<svg xmlns="http://www.w3.org/2000/svg" width="24" height="24"><path fill="none" d="M0 0h24v24H0V0z"/><path d="M12 2c-4.42 0-8 .5-8 4v9.5C4 17.43 5.57 19 7.5 19L6 20.5v.5h12v-.5L16.5 19c1.93 0 3.5-1.57 3.5-3.5V6c0-3.5-3.58-4-8-4zM7.5 17c-.83 0-1.5-.67-1.5-1.5S6.67 14 7.5 14s1.5.67 1.5 1.5S8.33 17 7.5 17zm3.5-6H6V6h5v5zm5.5 6c-.83 0-1.5-.67-1.5-1.5s.67-1.5 1.5-1.5 1.5.67 1.5 1.5-.67 1.5-1.5 1.5zm1.5-6h-5V6h5v5z" fill="currentColor"/></svg>

<?xml version="1.0" encoding="utf-8"?>
<!-- Generator: Adobe Illustrator 19.1.0, SVG Export Plug-In . SVG Version: 6.00 Build 0)  -->
<svg version="1.1" xmlns="http://www.w3.org/2000/svg" xmlns:xlink="http://www.w3.org/1999/xlink" x="0px" y="0px" width="24px"
	 height="24px" viewBox="0 0 24 24" enable-background="new 0 0 24 24" xml:space="preserve">
<g id="Bounding_Boxes">
	<path fill="none" d="M0,0h24v24H0V0z"/>
</g>
<g id="Sharp" fill="currentColor">
	<path d="M12,2C7.58,2,4,2.5,4,6v9.5C4,17.43,5.57,19,7.5,19L6,20.5V21h12v-0.5L16.5,19c1.93,0,3.5-1.57,3.5-3.5V6
		C20,2.5,16.42,2,12,2z M7.5,17C6.67,17,6,16.33,6,15.5S6.67,14,7.5,14S9,14.67,9,15.5S8.33,17,7.5,17z M11,11H6V6h5V11z M16.5,17
		c-0.83,0-1.5-0.67-1.5-1.5s0.67-1.5,1.5-1.5s1.5,0.67,1.5,1.5S17.33,17,16.5,17z M18,11h-5V6h5V11z"/>
</g>
</svg>
